X: 7577
T: Cocktail, The
R: reel
M: 4/4
K: Dmajor
DFF2 D2fe|dFF2 AFEF|DFF2 D2ed|cAAG EFGE|
DFF2 D2fe|dFF2 AFEF|DFF2 D2ed|cAAG EFGB||
A2 A2 eA A2|eA A2 AEGB|A2 A2 eA A2|gedB GBdB|
A2 A2 eA A2|eA A2 AEGB|A2 A2 eaag|fgef dBAF||

